public/images/google.svg

<svg width="15" height="16" viewBox="0 0 15 16" xmlns="http://www.w3.org/2000/svg" aria-hidden="true">
<path d="M14.879 8.1754C14.879 12.4546 11.9486 15.5 7.62097 15.5C3.47178 15.5 0.120972 12.1492 0.120972 8C0.120972 3.85081 3.47178 0.5 7.62097 0.5C9.64113 0.5 11.3407 1.24093 12.6502 2.4627L10.6089 4.4254C7.93851 1.84879 2.97279 3.78427 2.97279 8C2.97279 10.6159 5.0625 12.7359 7.62097 12.7359C10.5907 12.7359 11.7036 10.6069 11.879 9.50302H7.62097V6.92339H14.7611C14.8306 7.30746 14.879 7.67641 14.879 8.1754Z"/>
</svg>

<svg xmlns="http://www.w3.org/2000/svg" width="15" height="16" aria-hidden="true"><path d="M14.879 8.175c0 4.28-2.93 7.325-7.258 7.325-4.15 0-7.5-3.35-7.5-7.5S3.471.5 7.621.5c2.02 0 3.72.74 5.03 1.963l-2.042 1.962C7.939 1.85 2.973 3.785 2.973 8c0 2.616 2.09 4.736 4.648 4.736 2.97 0 4.083-2.13 4.258-3.233H7.621v-2.58h7.14c.07.384.118.753.118 1.252Z"/></svg>
